X:1
T:Himno a la Alegría
T:Sinfonía No.9
T:Ludwing van Bethoven
T:Profr. Santiago Loya Mendoza
Z:Profr. Santiago Loya Mendoza
L:1/8
M:4/4
K:G
V:1 treble nm="Flute" snm="Fl."
V:1
"G" B4 c2 d2 |"D7" d2 c2 B2 A2 |"Em" G2 G2"A7" A2 B2 |"D7" B4 A4 |"G" B4 c2 d2 |"D7" d2 c2 B2 A2 | %6
"Em" G2 G2"A7" A2 B2 |"D7" A4"G" G4 |"D7" A4"G" B2 G2 |"D7" A2 Bc"G" B2 G2 |"D7" A2 Bc"G" B2 A2 | %11
"A7" G2 A2"D7" [DA]4 |"G" B4 c2 d2 |"D7" d2 c2 B2 A2 |"Em" G2 G2"A7" A2 B2 |"D7" A4"G" G4 |] %16

